X: 157
T:Sound Symposium Jig
R:Jig
C:Emile Benoit
M:6/8
L:1/8
Z:Gerry Strong
K:G
|:eaa eaa|eaa baf|gag fed|gag fed|eaa eaa|eaa baf|gag edB|1A3 A3:|2A3|
|:efe ~A3|efe A2 e|dBA GAB|dBA GBd|efe ~A3|efe A2 e|dBA GBg|edB A3:|

